**kern	**silbe	**harmony	**phrase	**leadinstrument	**rhyme	**timestamp	**harte
*ICvox	*	*M4/4	*	*	*	*	*M4/4
*VRlead	*	*	*	*	*	*	*
*Hstimme	*	*	*	*	*	*	*
*E:	*	*E:	*	*	*	*	*E:
*M4/4	*	*	*	*	*	*	*
*clefG2	*	*	*	*	*	*	*
r;	.	1r;	.	r	.	0	N.C.
=1	=1	=1	=1	=1	=1	=1	=1
*>Letter>A	*>Letter>A	*>Letter>A	*>Letter>A	*>Letter>A	*>Letter>A	*>Letter>A	*>Letter>A
*>Label>Intro	*>Label>Intro	*>Label>Intro	*>Label>Intro	*>Label>Intro	*>Label>Intro	*>Label>Intro	*>Label>Intro
1r	.	1EM	newline	.	.	0.18	E:maj
=2	=2	=2	=2	=2	=2	=2	=2
1r	.	1EM	.	.	.	1.922	E:maj
=3	=3	=3	=3	=3	=3	=3	=3
1r	.	1EM	.	.	.	3.664	E:maj
=4	=4	=4	=4	=4	=4	=4	=4
1r	.	1EM	.	.	.	5.406	E:maj
=5	=5	=5	=5	=5	=5	=5	=5
1r	.	1EM	.	.	.	7.149	E:maj
=6	=6	=6	=6	=6	=6	=6	=6
1r	.	1EM	.	.	.	8.891	E:maj
=7	=7	=7	=7	=7	=7	=7	=7
1r	.	1EM	.	.	.	10.633	E:maj
=8	=8	=8	=8	=8	=8	=8	=8
1r	.	1EM	.	.	.	12.375	E:maj
=9	=9	=9	=9	=9	=9	=9	=9
*>Letter>B	*>Letter>B	*>Letter>B	*>Letter>B	*>Letter>B	*>Letter>B	*>Letter>B	*>Letter>B
*>Label>Verse	*>Label>Verse	*>Label>Verse	*>Label>Verse	*>Label>Verse	*>Label>Verse	*>Label>Verse	*>Label>Verse
8E	Get	1EM	newline	voice	.	14.118	E:maj
8E	your	.	.	.	.	.	.
8E	mo-	.	.	.	.	.	.
8E	-tor	.	.	.	.	.	.
4G	run-	.	.	.	.	.	.
[4E	-nin'	.	.	.	.	.	.
=10	=10	=10	=10	=10	=10	=10	=10
4E]	_	1EMm	.	voice	.	15.762	E:7(#9)
4r	.	.	.	.	.	.	.
2r	.	.	.	.	.	.	.
=11	=11	=11	=11	=11	=11	=11	=11
8d	Head	1EM	.	voice	.	17.406	E:maj
8d	out	.	.	.	.	.	.
8d	on	.	.	.	.	.	.
8d	the	.	.	.	.	.	.
4e	high-	.	.	.	(A	.	.
4e	-way	.	.	.	a)	.	.
=12	=12	=12	=12	=12	=12	=12	=12
1r	.	1EMm	.	voice	.	19.051	E:7(#9)
=13	=13	=13	=13	=13	=13	=13	=13
8E	Look-	1EM	.	voice	.	20.695	E:maj
8E	-in'	.	.	.	.	.	.
8G	for	.	.	.	.	.	.
8E	ad-	.	.	.	.	.	.
4A	-ven-	.	.	.	.	.	.
[4G	-ture	.	.	.	.	.	.
=14	=14	=14	=14	=14	=14	=14	=14
4G]	_	1EMm	.	voice	.	22.339	E:7(#9)
4r	.	.	.	.	.	.	.
4r	.	.	.	.	.	.	.
8B	and	.	.	.	.	.	.
8d	what	.	.	.	.	.	.
=15	=15	=15	=15	=15	=15	=15	=15
8e	e-	1EM	.	voice	.	23.983	E:maj
8e	-ver	.	.	.	.	.	.
8.e	comes	.	.	.	.	.	.
8.e	our	.	.	.	(A	.	.
16A	way	.	.	.	a)	.	.
16A-	_	.	.	.	.	.	.
[4G	_	.	.	.	.	.	.
=16	=16	=16	=16	=16	=16	=16	=16
4G]	_	1EMm	.	voice	.	25.628	E:7(#9)
4r	.	.	.	.	.	.	.
2r	.	.	.	.	.	.	.
=17	=17	=17	=17	=17	=17	=17	=17
*>Letter>C	*>Letter>C	*>Letter>C	*>Letter>C	*>Letter>C	*>Letter>C	*>Letter>C	*>Letter>C
*>Label>Bridge	*>Label>Bridge	*>Label>Bridge	*>Label>Bridge	*>Label>Bridge	*>Label>Bridge	*>Label>Bridge	*>Label>Bridge
4r	.	2GM	newline	.	.	27.272	G:maj
4g	Yeah	.	.	.	.	.	.
8f#	dar-	2AM	.	.	.	28.111	A:maj
8e	-lin'	.	.	.	.	.	.
8e	go	.	.	.	.	.	.
8e	and	.	.	.	.	.	.
=18	=18	=18	=18	=18	=18	=18	=18
8e	make	1EM	.	.	.	28.949	E:maj
8d	_	.	.	.	.	.	.
8d	it	.	.	.	.	.	.
4d	ha-	.	.	.	.	.	.
4.e	-ppen	.	.	.	.	.	.
=19	=19	=19	=19	=19	=19	=19	=19
4r	.	2GM	.	.	.	30.627	G:maj
8d	Take	.	.	.	.	.	.
8d	the	.	.	.	.	.	.
4c#	world	2AM	.	.	.	31.466	A:maj
8c#	in	.	.	.	.	.	.
8c#	a	.	.	.	.	.	.
=20	=20	=20	=20	=20	=20	=20	=20
8c#	love	1EM	.	.	.	32.305	E:maj
4B	em-	.	.	.	.	.	.
4.B	-brace	.	.	.	B	.	.
4r	.	.	.	.	.	.	.
=21	=21	=21	=21	=21	=21	=21	=21
4r	.	2GM	.	.	.	33.982	G:maj
4d	Fire	.	.	.	.	.	.
8c#	all	2AM	.	.	.	34.821	A:maj
8B	of	.	.	.	.	.	.
8A	your	.	.	.	.	.	.
[8B	guns	.	.	.	C	.	.
=22	=22	=22	=22	=22	=22	=22	=22
4B]	_	1EM	.	.	.	35.66	E:maj
8E	at	.	.	.	.	.	.
4G	once	.	.	.	C	.	.
4.A	and	.	.	.	.	.	.
=23	=23	=23	=23	=23	=23	=23	=23
4r	.	2GM	.	.	.	37.338	G:maj
4d	ex-	.	.	.	.	.	.
8c#	-plode	2AM	.	.	.	38.177	A:maj
8B	in-	.	.	.	.	.	.
8A	-to	.	.	.	.	.	.
8B	space	.	.	.	B	.	.
=24	=24	=24	=24	=24	=24	=24	=24
4B-	_	1EM	.	.	.	39.015	E:maj
4.B	_	.	.	.	.	.	.
8r	.	.	.	.	.	.	.
4r	.	.	.	.	.	.	.
=25	=25	=25	=25	=25	=25	=25	=25
*>Letter>B	*>Letter>B	*>Letter>B	*>Letter>B	*>Letter>B	*>Letter>B	*>Letter>B	*>Letter>B
*>Label>Verse	*>Label>Verse	*>Label>Verse	*>Label>Verse	*>Label>Verse	*>Label>Verse	*>Label>Verse	*>Label>Verse
8E	I	1EM	newline	.	.	40.693	E:maj
8E	like	.	.	.	.	.	.
8E	smoke	.	.	.	.	.	.
8E	and	.	.	.	.	.	.
4G	light-	.	.	.	.	.	.
[4E	-nin'	.	.	.	.	.	.
=26	=26	=26	=26	=26	=26	=26	=26
4E]	_	1EMm	.	.	.	42.334	E:7(#9)
4r	.	.	.	.	.	.	.
2r	.	.	.	.	.	.	.
=27	=27	=27	=27	=27	=27	=27	=27
8d	Heav-	1EM	.	.	.	43.976	E:maj
8d	-y	.	.	.	.	.	.
8d	me-	.	.	.	.	.	.
8d	-tal	.	.	.	.	.	.
4e	thun-	.	.	.	(D	.	.
4e	-der	.	.	.	d)	.	.
=28	=28	=28	=28	=28	=28	=28	=28
1r	.	1EMm	.	.	.	45.617	E:7(#9)
=29	=29	=29	=29	=29	=29	=29	=29
8E	Rac-	1EM	.	.	.	47.258	E:maj
8E	-in'	.	.	.	.	.	.
8G	with	.	.	.	.	.	.
8E	the	.	.	.	.	.	.
4A	wind	.	.	.	.	.	.
[4G	_	.	.	.	.	.	.
=30	=30	=30	=30	=30	=30	=30	=30
4G]	_	1EMm	.	.	.	48.9	E:7(#9)
4r	.	.	.	.	.	.	.
4r	.	.	.	.	.	.	.
8B	and	.	.	.	.	.	.
8d	the	.	.	.	.	.	.
=31	=31	=31	=31	=31	=31	=31	=31
8e	feel-	1EM	.	.	.	50.541	E:maj
8e	-in'	.	.	.	.	.	.
8e	that	.	.	.	.	.	.
8e	I'm	.	.	.	.	.	.
4G	un-	.	.	.	(D	.	.
[4E	-der	.	.	.	d)	.	.
=32	=32	=32	=32	=32	=32	=32	=32
4E]	_	1EMm	.	.	.	52.182	E:7(#9)
4r	.	.	.	.	.	.	.
2r	.	.	.	.	.	.	.
=33	=33	=33	=33	=33	=33	=33	=33
*>Letter>C	*>Letter>C	*>Letter>C	*>Letter>C	*>Letter>C	*>Letter>C	*>Letter>C	*>Letter>C
*>Label>Bridge	*>Label>Bridge	*>Label>Bridge	*>Label>Bridge	*>Label>Bridge	*>Label>Bridge	*>Label>Bridge	*>Label>Bridge
4r	.	2GM	newline	.	.	53.824	G:maj
4g	Yeah	.	.	.	.	.	.
8f#	dar-	2AM	.	.	.	54.66	A:maj
8e	-lin'	.	.	.	.	.	.
8e	go	.	.	.	.	.	.
8e	and	.	.	.	.	.	.
=34	=34	=34	=34	=34	=34	=34	=34
8e	make	1EM	.	.	.	55.497	E:maj
8d	_	.	.	.	.	.	.
8d	it	.	.	.	.	.	.
4d	ha-	.	.	.	.	.	.
4.e	-ppen	.	.	.	.	.	.
=35	=35	=35	=35	=35	=35	=35	=35
4r	.	2GM	.	.	.	57.17	G:maj
8d	Take	.	.	.	.	.	.
8d	the	.	.	.	.	.	.
4c#	world	2AM	.	.	.	58.007	A:maj
8c#	in	.	.	.	.	.	.
8c#	a	.	.	.	.	.	.
=36	=36	=36	=36	=36	=36	=36	=36
8c#	love	1EM	.	.	.	58.844	E:maj
4B	em-	.	.	.	.	.	.
4.B	-brace	.	.	.	B	.	.
4r	.	.	.	.	.	.	.
=37	=37	=37	=37	=37	=37	=37	=37
4r	.	2GM	.	.	.	60.517	G:maj
4d	Fire	.	.	.	.	.	.
8c#	all	2AM	.	.	.	61.354	A:maj
8B	of	.	.	.	.	.	.
8A	your	.	.	.	.	.	.
[8B	guns	.	.	.	C	.	.
=38	=38	=38	=38	=38	=38	=38	=38
4B]	_	1EM	.	.	.	62.19	E:maj
8E	at	.	.	.	.	.	.
4G	once	.	.	.	C	.	.
4.A	and	.	.	.	.	.	.
=39	=39	=39	=39	=39	=39	=39	=39
4r	.	2GM	.	.	.	63.864	G:maj
4d	ex-	.	.	.	.	.	.
8c#	-plode	2AM	.	.	.	64.7	A:maj
8B	in-	.	.	.	.	.	.
8A	-to	.	.	.	.	.	.
8B	space	.	.	.	B	.	.
=40	=40	=40	=40	=40	=40	=40	=40
4B-	_	1EM	.	.	.	65.537	E:maj
4.B	_	.	.	.	.	.	.
8r	.	.	.	.	.	.	.
8B	Like	.	.	.	.	.	.
8B	a	.	.	.	.	.	.
=41	=41	=41	=41	=41	=41	=41	=41
*>Letter>D	*>Letter>D	*>Letter>D	*>Letter>D	*>Letter>D	*>Letter>D	*>Letter>D	*>Letter>D
*>Label>Chorus	*>Label>Chorus	*>Label>Chorus	*>Label>Chorus	*>Label>Chorus	*>Label>Chorus	*>Label>Chorus	*>Label>Chorus
4e	true	1EM	newline	.	.	67.21	E:maj
4r	.	.	.	.	.	.	.
4e	nat-	.	.	.	.	.	.
8e	-ure's	.	.	.	.	.	.
8e	child	.	.	.	E	.	.
=42	=42	=42	=42	=42	=42	=42	=42
16d	_	1EM	.	.	.	68.87	E:maj
16c#	_	.	.	.	.	.	.
4.B	_	.	.	.	.	.	.
4r	.	.	.	.	.	.	.
8B	we	.	.	.	.	.	.
8d	were	.	.	.	.	.	.
=43	=43	=43	=43	=43	=43	=43	=43
4e	born	1GM	.	.	.	70.53	G:maj
4r	.	.	.	.	.	.	.
8e	born	.	.	.	.	.	.
8e	to	.	.	.	.	.	.
8e	be	.	.	.	.	.	.
[8e	wild	.	.	.	E	.	.
=44	=44	=44	=44	=44	=44	=44	=44
4e]	_	1GM	.	.	.	72.19	G:maj
4r	.	.	.	.	.	.	.
4r	.	.	.	.	.	.	.
8B	we	.	.	.	.	.	.
8d	can	.	.	.	.	.	.
=45	=45	=45	=45	=45	=45	=45	=45
8e	climb	1AM	newline	.	.	73.85	A:maj
8c#	_	.	.	.	.	.	.
8c#	so	.	.	.	.	.	.
4e	high	.	.	.	F	.	.
8c#	_	.	.	.	.	.	.
4r	.	.	.	.	.	.	.
=46	=46	=46	=46	=46	=46	=46	=46
8r	.	1GM	.	.	.	75.516	G:maj
8B	I	.	.	.	.	.	.
8g	ne-	.	.	.	.	.	.
4f#	-ver	.	.	.	.	.	.
8r	.	.	.	.	.	.	.
8d	wan-	.	.	.	.	.	.
8e	-na	.	.	.	.	.	.
=47	=47	=47	=47	=47	=47	=47	=47
8f#	die	1EM	.	.	F	77.182	E:maj
2..d	_	.	.	.	.	.	.
=48	=48	=48	=48	=48	=48	=48	=48
1r	.	1EM	.	.	.	78.849	E:maj
=49	=49	=49	=49	=49	=49	=49	=49
2e	Born	1EM	newline	.	.	80.515	E:maj
8e	to	.	.	.	.	.	.
4.e	be	.	.	.	.	.	.
=50	=50	=50	=50	=50	=50	=50	=50
4.d	wild	1DM	.	.	E	82.283	D:maj
16e	_	.	.	.	.	.	.
16d	_	.	.	.	.	.	.
4c#	_	.	.	.	.	.	.
4d	_	.	.	.	.	.	.
=51	=51	=51	=51	=51	=51	=51	=51
1r	.	1EM	.	.	.	84.05	E:maj
=52	=52	=52	=52	=52	=52	=52	=52
1r	.	1DM	.	.	.	85.818	D:maj
=53	=53	=53	=53	=53	=53	=53	=53
2e	Born	1EM	newline	voice	.	87.586	E:maj
8e	to	.	.	.	.	.	.
4.e	be	.	.	.	.	.	.
=54	=54	=54	=54	=54	=54	=54	=54
4.d	wild	1DM	.	voice	E	89.212	D:maj
16e	_	.	.	.	.	.	.
16d	_	.	.	.	.	.	.
4c#	_	.	.	.	.	.	.
4d	_	.	.	.	.	.	.
=55	=55	=55	=55	=55	=55	=55	=55
1r	.	1EM	.	voice	.	90.839	E:maj
=56	=56	=56	=56	=56	=56	=56	=56
1r	.	1DM	.	voice	.	92.466	D:maj
=57	=57	=57	=57	=57	=57	=57	=57
*>Letter>A	*>Letter>A	*>Letter>A	*>Letter>A	*>Letter>A	*>Letter>A	*>Letter>A	*>Letter>A
*>Label>Interlude	*>Label>Interlude	*>Label>Interlude	*>Label>Interlude	*>Label>Interlude	*>Label>Interlude	*>Label>Interlude	*>Label>Interlude
1r	.	1EM	newline	.	.	94.093	E:maj
=58	=58	=58	=58	=58	=58	=58	=58
1r	.	1EM	.	.	.	95.73	E:maj
=59	=59	=59	=59	=59	=59	=59	=59
1r	.	1EM	.	.	.	97.367	E:maj
=60	=60	=60	=60	=60	=60	=60	=60
1r	.	1EM	.	.	.	99.005	E:maj
=61	=61	=61	=61	=61	=61	=61	=61
1r	.	1EM	.	.	.	100.642	E:maj
=62	=62	=62	=62	=62	=62	=62	=62
1r	.	1EM	.	.	.	102.279	E:maj
=63	=63	=63	=63	=63	=63	=63	=63
1r	.	1EM	.	.	.	103.917	E:maj
=64	=64	=64	=64	=64	=64	=64	=64
1r	.	1EM	.	.	.	105.554	E:maj
=65	=65	=65	=65	=65	=65	=65	=65
1r	.	1EM	.	.	.	107.191	E:maj
=66	=66	=66	=66	=66	=66	=66	=66
1r	.	1EM	.	.	.	108.829	E:maj
=67	=67	=67	=67	=67	=67	=67	=67
1r	.	1EM	.	.	.	110.466	E:maj
=68	=68	=68	=68	=68	=68	=68	=68
1r	.	1EM	.	.	.	112.103	E:maj
=69	=69	=69	=69	=69	=69	=69	=69
1r	.	1EM	.	.	.	113.74	E:maj
=70	=70	=70	=70	=70	=70	=70	=70
1r	.	1EM	.	.	.	115.378	E:maj
=71	=71	=71	=71	=71	=71	=71	=71
1r	.	1EM	.	.	.	117.015	E:maj
=72	=72	=72	=72	=72	=72	=72	=72
1r	.	1EM	.	.	.	118.652	E:maj
=73	=73	=73	=73	=73	=73	=73	=73
1r	.	1EM	.	.	.	120.29	E:maj
=74	=74	=74	=74	=74	=74	=74	=74
1r	.	1EM	.	.	.	121.927	E:maj
=75	=75	=75	=75	=75	=75	=75	=75
1r	.	1EM	.	.	.	123.564	E:maj
=76	=76	=76	=76	=76	=76	=76	=76
1r	.	1EM	.	.	.	125.202	E:maj
=77	=77	=77	=77	=77	=77	=77	=77
1r	.	1N	newline	drums	.	126.839	N.C.
=78	=78	=78	=78	=78	=78	=78	=78
1r	.	1N	.	drums	.	128.493	N.C.
=79	=79	=79	=79	=79	=79	=79	=79
*>Letter>B	*>Letter>B	*>Letter>B	*>Letter>B	*>Letter>B	*>Letter>B	*>Letter>B	*>Letter>B
*>Label>Verse	*>Label>Verse	*>Label>Verse	*>Label>Verse	*>Label>Verse	*>Label>Verse	*>Label>Verse	*>Label>Verse
8E	Get	1EM	newline	voice	.	130.148	E:maj
8E	your	.	.	.	.	.	.
8E	mo-	.	.	.	.	.	.
8E	-tor	.	.	.	.	.	.
4G	run-	.	.	.	.	.	.
[4E	-nin'	.	.	.	.	.	.
=80	=80	=80	=80	=80	=80	=80	=80
4E]	_	1EMm	.	voice	.	131.795	E:7(#9)
4r	.	.	.	.	.	.	.
2r	.	.	.	.	.	.	.
=81	=81	=81	=81	=81	=81	=81	=81
8d	Head	1EM	.	voice	.	133.442	E:maj
8d	out	.	.	.	.	.	.
8d	on	.	.	.	.	.	.
8d	the	.	.	.	.	.	.
4e	high-	.	.	.	(A	.	.
4e	-way	.	.	.	a)	.	.
=82	=82	=82	=82	=82	=82	=82	=82
1r	.	1EMm	.	voice	.	135.089	E:7(#9)
=83	=83	=83	=83	=83	=83	=83	=83
8E	Look-	1EM	.	voice	.	136.736	E:maj
8E	-in'	.	.	.	.	.	.
8G	for	.	.	.	.	.	.
8E	ad-	.	.	.	.	.	.
4A	-ven-	.	.	.	.	.	.
[4G	-ture	.	.	.	.	.	.
=84	=84	=84	=84	=84	=84	=84	=84
4G]	_	1EMm	.	voice	.	138.383	E:7(#9)
4r	.	.	.	.	.	.	.
4r	.	.	.	.	.	.	.
8B	and	.	.	.	.	.	.
8d	what	.	.	.	.	.	.
=85	=85	=85	=85	=85	=85	=85	=85
8e	e-	1EM	.	voice	.	140.03	E:maj
8e	-ver	.	.	.	.	.	.
8.e	comes	.	.	.	.	.	.
8.e	are	.	.	.	(A	.	.
16A	way	.	.	.	a)	.	.
16A-	_	.	.	.	.	.	.
[4G	_	.	.	.	.	.	.
=86	=86	=86	=86	=86	=86	=86	=86
4G]	_	1EMm	.	voice	.	141.677	E:7(#9)
4r	.	.	.	.	.	.	.
2r	.	.	.	.	.	.	.
=87	=87	=87	=87	=87	=87	=87	=87
4r	.	2GM	newline	.	.	143.324	G:maj
4g	Yeah	.	.	.	.	.	.
8f#	dar-	2AM	.	.	.	144.143	A:maj
8e	-lin'	.	.	.	.	.	.
8e	go	.	.	.	.	.	.
8e	and	.	.	.	.	.	.
=88	=88	=88	=88	=88	=88	=88	=88
8e	make	1EM	.	.	.	144.963	E:maj
8d	_	.	.	.	.	.	.
8d	it	.	.	.	.	.	.
4d	ha-	.	.	.	.	.	.
4.e	-ppen	.	.	.	.	.	.
=89	=89	=89	=89	=89	=89	=89	=89
4r	.	2GM	.	.	.	146.601	G:maj
8d	Take	.	.	.	.	.	.
8d	the	.	.	.	.	.	.
4c#	world	2AM	.	.	.	147.421	A:maj
8c#	in	.	.	.	.	.	.
8c#	a	.	.	.	.	.	.
=90	=90	=90	=90	=90	=90	=90	=90
8c#	love	1EM	.	.	.	148.24	E:maj
4B	em-	.	.	.	.	.	.
4.B	-brace	.	.	.	B	.	.
4r	.	.	.	.	.	.	.
=91	=91	=91	=91	=91	=91	=91	=91
4r	.	2GM	.	.	.	149.878	G:maj
4d	Fire	.	.	.	.	.	.
8c#	all	2AM	.	.	.	150.698	A:maj
8B	of	.	.	.	.	.	.
8A	your	.	.	.	.	.	.
[8B	guns	.	.	.	C	.	.
=92	=92	=92	=92	=92	=92	=92	=92
4B]	_	1EM	.	.	.	151.517	E:maj
8E	at	.	.	.	.	.	.
4G	once	.	.	.	C	.	.
4.A	and	.	.	.	.	.	.
=93	=93	=93	=93	=93	=93	=93	=93
4r	.	2GM	.	.	.	153.156	G:maj
4d	ex-	.	.	.	.	.	.
8c#	-plode	2AM	.	.	.	153.975	A:maj
8B	in-	.	.	.	.	.	.
8A	-to	.	.	.	.	.	.
8B	space	.	.	.	B	.	.
=94	=94	=94	=94	=94	=94	=94	=94
4B-	_	1EM	.	.	.	154.794	E:maj
4.B	_	.	.	.	.	.	.
8r	.	.	.	.	.	.	.
8B	Like	.	.	.	.	.	.
8B	a	.	.	.	.	.	.
=95	=95	=95	=95	=95	=95	=95	=95
*>Letter>C	*>Letter>C	*>Letter>C	*>Letter>C	*>Letter>C	*>Letter>C	*>Letter>C	*>Letter>C
*>Label>Chorus	*>Label>Chorus	*>Label>Chorus	*>Label>Chorus	*>Label>Chorus	*>Label>Chorus	*>Label>Chorus	*>Label>Chorus
4e	true	1EM	newline	.	.	156.433	E:maj
4r	.	.	.	.	.	.	.
4e	nat-	.	.	.	.	.	.
8e	-ure's	.	.	.	.	.	.
8e	child	.	.	.	E	.	.
=96	=96	=96	=96	=96	=96	=96	=96
16d	_	1EM	.	.	.	158.077	E:maj
16c#	_	.	.	.	.	.	.
4.B	_	.	.	.	.	.	.
4r	.	.	.	.	.	.	.
8B	we	.	.	.	.	.	.
8d	were	.	.	.	.	.	.
=97	=97	=97	=97	=97	=97	=97	=97
4e	born	1GM	.	.	.	159.722	G:maj
4r	.	.	.	.	.	.	.
8e	born	.	.	.	.	.	.
8e	to	.	.	.	.	.	.
8e	be	.	.	.	.	.	.
[8e	wild	.	.	.	E	.	.
=98	=98	=98	=98	=98	=98	=98	=98
8e]	_	1GM	.	.	.	161.366	G:maj
8r	.	.	.	.	.	.	.
4r	.	.	.	.	.	.	.
4r	.	.	.	.	.	.	.
8B	we	.	.	.	.	.	.
8d	can	.	.	.	.	.	.
=99	=99	=99	=99	=99	=99	=99	=99
8e	climb	1AM	newline	.	.	163.011	A:maj
8c#	_	.	.	.	.	.	.
8c#	so	.	.	.	.	.	.
4e	high	.	.	.	F	.	.
8c#	_	.	.	.	.	.	.
4r	.	.	.	.	.	.	.
=100	=100	=100	=100	=100	=100	=100	=100
8r	.	1GM	.	.	.	164.703	G:maj
8B	I	.	.	.	.	.	.
8g	ne-	.	.	.	.	.	.
4f#	-ver	.	.	.	.	.	.
8r	.	.	.	.	.	.	.
8d	wan-	.	.	.	.	.	.
8e	-na	.	.	.	.	.	.
=101	=101	=101	=101	=101	=101	=101	=101
8f#	die	1EM	.	.	F	166.395	E:maj
2..d	_	.	.	.	.	.	.
=102	=102	=102	=102	=102	=102	=102	=102
1r	.	1EM	.	.	.	168.087	E:maj
=103	=103	=103	=103	=103	=103	=103	=103
2e	Born	1EM	newline	.	.	169.778	E:maj
8e	to	.	.	.	.	.	.
4.e	be	.	.	.	.	.	.
=104	=104	=104	=104	=104	=104	=104	=104
4.d	wild	1DM	.	.	E	171.504	D:maj
16e	_	.	.	.	.	.	.
16d	_	.	.	.	.	.	.
4c#	_	.	.	.	.	.	.
4d	_	.	.	.	.	.	.
=105	=105	=105	=105	=105	=105	=105	=105
1r	.	1EM	.	.	.	173.23	E:maj
=106	=106	=106	=106	=106	=106	=106	=106
1r	.	1DM	.	.	.	174.955	D:maj
=107	=107	=107	=107	=107	=107	=107	=107
2e	Born	1EM	newline	.	.	176.681	E:maj
8e	to	.	.	.	.	.	.
4.e	be	.	.	.	.	.	.
=108	=108	=108	=108	=108	=108	=108	=108
4.d	wild	1DM	.	.	E	178.332	D:maj
16e	_	.	.	.	.	.	.
16d	_	.	.	.	.	.	.
4c#	_	.	.	.	.	.	.
4d	_	.	.	.	.	.	.
=109	=109	=109	=109	=109	=109	=109	=109
1r	.	1EM	.	.	.	179.984	E:maj
=110	=110	=110	=110	=110	=110	=110	=110
1r	.	1DM	.	.	.	181.635	D:maj
=111	=111	=111	=111	=111	=111	=111	=111
*>Letter>A	*>Letter>A	*>Letter>A	*>Letter>A	*>Letter>A	*>Letter>A	*>Letter>A	*>Letter>A
*>Label>Outro	*>Label>Outro	*>Label>Outro	*>Label>Outro	*>Label>Outro	*>Label>Outro	*>Label>Outro	*>Label>Outro
1r	.	1EM	newline	.	.	183.287	E:maj
=112	=112	=112	=112	=112	=112	=112	=112
1r	.	1EM	.	.	.	184.936	E:maj
=113	=113	=113	=113	=113	=113	=113	=113
1r	.	1EM	.	.	.	186.585	E:maj
=114	=114	=114	=114	=114	=114	=114	=114
1r	.	1EM	.	.	.	188.234	E:maj
=115	=115	=115	=115	=115	=115	=115	=115
1r	.	1EM	.	.	.	189.883	E:maj
=116	=116	=116	=116	=116	=116	=116	=116
1r	.	1EM	.	.	.	191.532	E:maj
=117	=117	=117	=117	=117	=117	=117	=117
1r	.	1EM	.	.	.	193.181	E:maj
=118	=118	=118	=118	=118	=118	=118	=118
1r	.	1EM	.	.	.	194.83	E:maj
=119	=119	=119	=119	=119	=119	=119	=119
1r	.	1EM	newline	fadeout	.	196.478	E:maj
=120	=120	=120	=120	=120	=120	=120	=120
1r	.	1EM	.	fadeout	.	198.001	E:maj
=121	=121	=121	=121	=121	=121	=121	=121
1r	.	1EM	.	fadeout	.	199.523	E:maj
=122	=122	=122	=122	=122	=122	=122	=122
1r	.	1EM	.	fadeout	.	201.045	E:maj
=123	=123	=123	=123	=123	=123	=123	=123
1r	.	1EM	.	fadeout	.	202.567	E:maj
=124	=124	=124	=124	=124	=124	=124	=124
1r	.	1EM	.	fadeout	.	204.089	E:maj
=125	=125	=125	=125	=125	=125	=125	=125
1r	.	1EM	.	fadeout	.	205.611	E:maj
=126	=126	=126	=126	=126	=126	=126	=126
1r	.	1EM	.	fadeout	.	207.133	E:maj
r;	.	1r;	.	r	.	208.655	N.C.
r;	.	1r;	.	r	.	209.502	N.C.
*-	*-	*-	*-	*-	*-	*-	*-
!!!BillboardChartDate: 1968/10/05
!!!BillboardPeak: 2
!!!BillboardWeeksOnChart: 13
!!!COC: Steppenwolf
!!!ENC: Nathaniel Condit-Schultz
!!!EST: Awating manual error checking and editing.
!!!OTL: Born To Be Wild
!!!RDF**chordsym: original McGill chord annotation + (implied pitch class set, with bass pitch in first position)
!!!RDF**harmony: **recip + pitch class of root + harmonic quality
!!!RDF**leadinstrument: original McGill primary instrumentation annotation
!!!RDF**phrase: newline = linebreak in original McGill transcription
!!!RDF**timestamp: McGill audio timestamp in seconds
!!!RDT: 2017/01/12/
!!!SampleActualRank: 23
!!!SampleID#: 0841
!!!SampleTargetRank: 22
